displayp3.ocio
ocio_profile_version: 1

search_path: ""
strictparsing: true
luma: [0.2126, 0.7152, 0.0722]

roles:
  {}

displays:
  {}

active_displays: []
active_views: []

colorspaces:
  - !<ColorSpace>
    name: Apple DCI-P3 D65
    family: display
    equalitygroup: ""
    bitdepth: 32f
    isdata: false
    allocation: lg2
    allocationvars: [-12.4739, 12.5261]
    to_reference: !<GroupTransform>
      children:
        - !<MatrixTransform> {matrix: [0.515121, 0.291977, 0.157104, 0, 0.241196, 0.692245, 0.0665741, 0, -0.00105286, 0.0418854, 0.784073, 0, 0, 0, 0, 1]}
        - !<MatrixTransform> {matrix: [1.04788, 0.0229187, -0.0502014, 0, 0.0295868, 0.990479, -0.0170593, 0, -0.00923157, 0.0150757, 0.751678, 0, 0, 0, 0, 1], direction: inverse}
        - !<MatrixTransform> {matrix: [0.412391, 0.357584, 0.180481, 0, 0.212639, 0.715169, 0.0721923, 0, 0.0193308, 0.119195, 0.950532, 0, 0, 0, 0, 1], direction: inverse}
